img/Thumb-like.svg

<svg width="15" height="13" viewBox="0 0 15 13" fill="none" xmlns="http://www.w3.org/2000/svg">
<path fill-rule="evenodd" clip-rule="evenodd" d="M1.5 12.75C1.08579 12.75 0.75 12.4142 0.75 12V5.25001C0.75 4.83579 1.08579 4.50001 1.5 4.50001H2.25C2.66421 4.50001 3 4.83579 3 5.25001V12C3 12.4142 2.66421 12.75 2.25 12.75H1.5ZM13.0227 4.20939C13.6977 4.20939 14.25 4.80066 14.25 5.52331C14.2403 6.52762 14.2162 7.08155 14.1778 7.18508C14.1394 7.28861 13.5089 8.8808 12.2864 11.9616C12.1023 12.4215 10.5902 12.75 10.0993 12.75H5.79C5.115 12.75 4.125 12.1587 4.125 11.4361V4.50001L8.19543 0.287946L8.19774 0.285557C8.55929 -0.0859288 9.15354 -0.0939831 9.52502 0.267568C9.64773 0.464659 9.77045 0.727447 9.77045 0.990235C9.77045 1.05593 9.77045 1.12163 9.77045 1.18733L9.15682 4.20939H13.0227Z" fill="#BCBFC2"/>
</svg>

<svg width="15" height="13" fill="none" xmlns="http://www.w3.org/2000/svg"><path fill-rule="evenodd" clip-rule="evenodd" d="M1.5 12.75A.75.75 0 0 1 .75 12V5.25a.75.75 0 0 1 .75-.75h.75a.75.75 0 0 1 .75.75V12a.75.75 0 0 1-.75.75H1.5Zm11.523-8.54c.675 0 1.227.59 1.227 1.313-.01 1.005-.034 1.559-.072 1.662-.039.104-.67 1.696-1.892 4.777-.184.46-1.696.788-2.187.788H5.79c-.675 0-1.665-.591-1.665-1.314V4.5L8.195.288l.003-.002A.939.939 0 0 1 9.525.268c.123.197.245.46.245.722v.197L9.157 4.21h3.866Z" fill="#BCBFC2"/></svg>
